X: 1
T:Hambo efter Boda Spelmanslag
M:3/4
L:1/8
R:Hambo
P:AABA ABA ABA
D:CD
O:Sweden
Z:Carol Turner
K:A
e2 e>f ed| d<c c2A>c| c>B B2 G>B | B>A A>B cd |\
e2 e>f ed| d<c c2A>c| c>B BE G>B|B>A A4:| \
c>d e2c2| d>e f2d2 | d>c d>e fg | ag e4 | \
c>d e2c2| d>e f2d2|d>c d>e fg| ag e4|]
